X: 25978
T: Maya's
R: waltz
M: 3/4
K: Adorian
A2 c2 e2|g4 fg|ga f2 d2|ef ed cB|
AB cd ef|g4 fg|ga f2 d2|e6:|
a2 ec eg|f2 ed c2|B2 AG AB|AB cd eg|
a2 ec eg|f2 ed c2|B2 AG AB|A6:|

